assets/Hourglass done/Flat/hourglass_done_flat.svg

<svg width="32" height="32" viewBox="0 0 32 32" fill="none" xmlns="http://www.w3.org/2000/svg">
<path d="M25 6.3999V3.8999L16 3.5L7 3.8999V6.3999C7 10.3999 9.8 13.6999 13.5 14.5999C13.8 14.6999 14 14.9999 14 15.2999V16.4999C14 16.7999 13.8 17.0999 13.5 17.0999C9.8 17.9999 7 21.2999 7 25.2999V27.9999L16 29L25 27.9999V25.2999C25 21.2999 22.2 17.9999 18.5 17.0999C18.2 16.9999 18 16.7999 18 16.4999V15.2999C18 14.9999 18.2 14.6999 18.5 14.6999C22.2 13.6999 25 10.3999 25 6.3999Z" fill="#83CBFF"/>
<path d="M7 4H25C25.6 4 26 3.6 26 3C26 2.4 25.6 2 25 2H7C6.4 2 6 2.4 6 3C6 3.6 6.4 4 7 4ZM7 30H25C25.6 30 26 29.6 26 29C26 28.4 25.6 28 25 28H7C6.4 28 6 28.4 6 29C6 29.6 6.4 30 7 30Z" fill="#9B9B9B"/>
<path d="M17 19.4V15.1C17 14.4 17.5 13.9 18.1 13.7C19.8 13.3 21.3 12.3 22.4 11C23.1 10.2 22.5 9 21.5 9C18.6 9 13.4 9 10.5 9C9.5 9 8.9 10.2 9.6 11C10.7 12.3 12.2 13.2 13.9 13.7C14.6 13.9 15 14.4 15 15.1V19C15 19.7 14.7 20 14.4 20.1C10.7 20.8 8 23.6 8 26.9V28H24V26.9C24 23.6 21.3 20.8 17.6 20.1C17.3 20.1 17 19.8 17 19.4Z" fill="#FFB02E"/>
<path d="M21.5 5.7999C21.5 5.2999 21.9 4.8999 22.4 4.8999C23 4.9999 23.4 5.3999 23.3 5.7999C23.2 7.3999 22.8 8.7999 22 9.9999C21.2 11.3999 20 12.3999 18.6 12.8999C18.1 13.0999 17.6 12.8999 17.4 12.3999C17.2 11.8999 17.4 11.3999 17.9 11.1999C20.3 10.2999 21.3 7.6999 21.5 5.7999ZM21.5 25.9C21.5 26.4 21.9 26.8 22.4 26.8C23 26.8 23.4 26.3 23.3 25.9C23.2 24.3 22.8 22.9 22 21.7C21.2 20.3 20 19.3 18.6 18.8C18.1 18.6 17.6 18.8 17.4 19.3C17.2 19.8 17.4 20.3 17.9 20.5C20.3 21.4 21.3 24 21.5 25.9Z" fill="white"/>
</svg>

<svg xmlns="http://www.w3.org/2000/svg" width="32" height="32" fill="none"><path fill="#83CBFF" d="M25 6.4V3.9l-9-.4-9 .4v2.5c0 4 2.8 7.3 6.5 8.2.3.1.5.4.5.7v1.2c0 .3-.2.6-.5.6C9.8 18 7 21.3 7 25.3V28l9 1 9-1v-2.7c0-4-2.8-7.3-6.5-8.2-.3-.1-.5-.3-.5-.6v-1.2c0-.3.2-.6.5-.6 3.7-1 6.5-4.3 6.5-8.3Z"/><path fill="#9B9B9B" d="M7 4h18c.6 0 1-.4 1-1s-.4-1-1-1H7c-.6 0-1 .4-1 1s.4 1 1 1Zm0 26h18c.6 0 1-.4 1-1s-.4-1-1-1H7c-.6 0-1 .4-1 1s.4 1 1 1Z"/><path fill="#FFB02E" d="M17 19.4v-4.3c0-.7.5-1.2 1.1-1.4 1.7-.4 3.2-1.4 4.3-2.7.7-.8.1-2-.9-2h-11c-1 0-1.6 1.2-.9 2 1.1 1.3 2.6 2.2 4.3 2.7.7.2 1.1.7 1.1 1.4V19c0 .7-.3 1-.6 1.1-3.7.7-6.4 3.5-6.4 6.8V28h16v-1.1c0-3.3-2.7-6.1-6.4-6.8-.3 0-.6-.3-.6-.7Z"/><path fill="#fff" d="M21.5 5.8c0-.5.4-.9.9-.9.6.1 1 .5.9.9-.1 1.6-.5 3-1.3 4.2-.8 1.4-2 2.4-3.4 2.9-.5.2-1 0-1.2-.5-.2-.5 0-1 .5-1.2 2.4-.9 3.4-3.5 3.6-5.4Zm0 20.1c0 .5.4.9.9.9.6 0 1-.5.9-.9-.1-1.6-.5-3-1.3-4.2-.8-1.4-2-2.4-3.4-2.9-.5-.2-1 0-1.2.5-.2.5 0 1 .5 1.2 2.4.9 3.4 3.5 3.6 5.4Z"/></svg>
